X: 66
T:Danse De Chez Nous
% Nottingham Music Database
S:Trad, arr Phil Rowe
M:6/8
K:A
E|:"A"EAc e2c|f2c ecA|"A"EAc e2c|"F#7"f2c "E"dBG|
"E7"EGB d2B|e2B dBG|"E7"EGB dcB|[1"A"Acf ecA:|
[2"A"Ace a2e|:"A"a2c e2A|c3 -c2E|"A"EFG "F#m"ABc|
"Bm"d3 -d2e|"E"f2B d2E|G3 -G2e|"E7"gfe dcB|[1"A"Acf "E7"e3:| [2"A"Ace a2||<end>
<start>
